X: 1
T:BWV 941
C:Johann Sebastian Bach
O:Germany
N:The first four notes of voice 2 originally written
N:in the bass staff.
Z:Transcribed by Frank Nordberg - http://www.musicaviva.com

V:1 Program 1 6 up %Harpsichord
V:2 Program 1 6 merge down %Harpsichord
V:3 Program 1 6 bass %Harpsichord
M:3/4
L:1/8

K:Em
V:1
zEGBeB|cAFA^DB|G2E2e2-|e2^d2f2-|
V:2
G,6|A,4F,2|B, x x2G2|F4A2-|
V:3
E,6|E,6-|E, E,G,B,EB,|CA,F,A,^D,B,|

V:1
f2e2g2-|g2f2a2-|a2g2=f2-|f2e4|
V:2
A2G2B2-|B2A2c2|B6-|B2cBc2-|
V:3
G,EB,G,E,G,|A,B,CA,F,D,|G,G,,B,,D,G,D,|E,G,C,E,A,,C,|

V:1
d6-|deMA3G|GdBG g2|ze^ceAg|f2zfdB|
V:2
c2BAG^F|G2F4|x4x2|x4x2|x4x2|
V:3
^F,,D,,G,,B,,E,,G,,|C,,C,D,C,D,D,,|G,,2zB,G,E,|^C2A,2C2|DA,F,D,D2|

V:1
^g2e2g2|ae=cAa2|zf^dfBa|=geceAg|f=dBdGf|
V:2
x4x2|x4x2|x4x2|x4x2|x4x2|
V:3
zB,^G,B,E,D|C2zCA,F,|^D2B,2D2|E2zA,CE|=D2zG,B,D|

V:1
e2^def2-|fBe=dcB|(3ABc MF3E|E6|]
V:2
x4A2-|A2G3G|FEE2^D2|zB,^G,4|]
V:3
CA,F,A,^D,F,|G,,E,,G,,B,,E,B,,|C,A,,B,,A,,B,,2|\
E,,3-[E,,-B,,-][E,,2E,2]|]

